X: 29564
T: Nollaig Casey's
R: reel
M: 4/4
K: Gmajor
"G"G3B dB ~B2|dege dBGB|"D"cBAG FD ~D2|FEFG AGFE|
"C"EDEF EC ~C2|"Am"EFGF EC ~C2|"Em"B,EEB, EFGA|1 B2 AB GFED:|2 B2 AB GABd||
|:"G"g3a bg ~g2|dg ~g2 bgag|"D"fdAG FD ~D2|FEFG ABcd|
"C"edef ec ~c2|"Am"efgf ec ~c2|"Em"B2 AF GABc|1 "D"d2 d^c defd:|2 "D"d2 ge dBAB||

